images/game.svg

<svg width="11" height="8" viewBox="0 0 11 8" fill="none" xmlns="http://www.w3.org/2000/svg">
<path d="M1.10001 7.10004C1.30001 7.20004 1.59999 7.10006 1.89999 7.00006C2.39999 6.80006 3 6.40009 3.5 5.90009C3.9 5.50009 4.59999 5.30005 5.29999 5.30005C5.99999 5.30005 6.80001 5.50009 7.10001 5.90009C7.70001 6.40009 8.20001 6.80006 8.70001 7.00006C9.00001 7.10006 9.3 7.20004 9.5 7.10004C9.8 7.00004 10 6.80006 10.1 6.50006C10.2 6.20006 10.3 5.70004 10.3 5.10004C10.3 4.50004 10.2 3.90005 10 3.30005C9.8 2.70005 9.69999 2.20005 9.39999 1.80005C8.49999 0.300049 7.59999 0.500049 6.39999 0.800049C5.99999 0.900049 5.60001 1.00006 5.20001 1.00006H5.10001C4.70001 1.00006 4.29999 0.900049 3.89999 0.800049C2.79999 0.500049 1.79999 0.300049 0.899994 1.80005C0.699994 2.20005 0.499988 2.80005 0.299988 3.30005C0.0999878 3.90005 0 4.50004 0 5.10004C0 5.70004 1.22041e-05 6.20006 0.200012 6.50006C0.600012 6.80006 0.800006 7.00004 1.10001 7.10004ZM0.799988 5.10004C0.799988 4.60004 0.900006 3.90009 1.10001 3.40009C1.20001 2.90009 1.40001 2.40006 1.60001 2.00006C2.30001 0.800061 3.10001 1.00007 4.10001 1.20007C4.50001 1.30007 4.89999 1.40009 5.29999 1.40009H5.39999C5.89999 1.40009 6.30001 1.30007 6.60001 1.20007C7.60001 1.00007 8.40001 0.700061 9.10001 2.00006C9.30001 2.40006 9.50001 2.90009 9.60001 3.40009C9.70001 4.00009 9.79999 4.60004 9.89999 5.10004C9.89999 5.70004 9.89999 6.10005 9.79999 6.30005C9.69999 6.50005 9.6 6.60004 9.5 6.60004C9.4 6.60004 9.2 6.60006 9 6.50006C8.6 6.30006 8 5.90006 7.5 5.50006C7 5.00006 6.19999 4.80005 5.29999 4.80005C4.49999 4.80005 3.60001 5.00006 3.10001 5.50006C2.60001 6.00006 2.10001 6.40006 1.60001 6.50006C1.40001 6.60006 1.20001 6.60004 1.10001 6.60004C1.00001 6.60004 0.899988 6.50005 0.799988 6.30005C0.799988 6.10005 0.799988 5.70004 0.799988 5.10004Z" fill="white"/>
<path d="M2.30008 3.90015C2.30008 4.10015 2.40009 4.20015 2.50009 4.40015C2.60009 4.50015 2.80009 4.6001 3.00009 4.6001C3.20009 4.6001 3.40009 4.50015 3.50009 4.40015C3.60009 4.30015 3.7001 4.10015 3.7001 3.90015C3.9001 3.90015 4.0001 3.80013 4.2001 3.70013C4.3001 3.60013 4.40009 3.40013 4.40009 3.20013C4.40009 3.00013 4.3001 2.80013 4.2001 2.70013C4.1001 2.60013 3.9001 2.50012 3.7001 2.50012C3.7001 2.30012 3.60009 2.2001 3.50009 2.1001C3.40009 2.0001 3.20009 1.90015 3.00009 1.90015C2.80009 1.90015 2.60009 2.0001 2.50009 2.1001C2.40009 2.2001 2.30008 2.4001 2.30008 2.6001C2.10008 2.6001 2.00008 2.70011 1.80008 2.80011C1.70008 2.90011 1.6001 3.10011 1.6001 3.30011C1.6001 3.50011 1.70008 3.70011 1.80008 3.80011C2.00008 3.80011 2.10008 3.90015 2.30008 3.90015ZM2.1001 3.20013C2.1001 3.10013 2.1001 3.10012 2.2001 3.00012C2.3001 3.00012 2.30009 2.90015 2.40009 2.90015H2.6001C2.7001 2.90015 2.80008 2.80013 2.80008 2.70013V2.50012C2.80008 2.40012 2.80009 2.40011 2.90009 2.30011C3.00009 2.20011 3.0001 2.20013 3.1001 2.20013C3.2001 2.20013 3.20008 2.20011 3.30008 2.30011C3.30008 2.40011 3.40009 2.40012 3.40009 2.50012V2.70013C3.40009 2.80013 3.5001 2.90015 3.6001 2.90015H3.80008C3.90008 2.90015 3.90009 2.90012 4.00009 3.00012C4.10009 3.10012 4.1001 3.10013 4.1001 3.20013C4.1001 3.30013 4.10009 3.30015 4.00009 3.40015C3.90009 3.50015 3.90008 3.50012 3.80008 3.50012H3.6001C3.5001 3.50012 3.40009 3.60013 3.40009 3.70013V3.90015C3.40009 4.00015 3.40008 4.0001 3.30008 4.1001C3.20008 4.2001 3.2001 4.20013 3.1001 4.20013C3.0001 4.20013 3.00009 4.2001 2.90009 4.1001C2.80009 4.0001 2.80008 4.00015 2.80008 3.90015V3.70013C2.80008 3.60013 2.7001 3.50012 2.6001 3.50012H2.40009C2.30009 3.50012 2.3001 3.50015 2.2001 3.40015C2.1001 3.30015 2.1001 3.20013 2.1001 3.20013Z" fill="white"/>
<path d="M7.60008 1.80005C7.80008 1.80005 8.00007 2.00007 8.00007 2.20007C8.00007 2.40007 7.80008 2.60004 7.60008 2.60004C7.40008 2.60004 7.20009 2.40007 7.20009 2.20007C7.10009 2.00007 7.30008 1.80005 7.60008 1.80005Z" fill="white"/>
<path d="M7.60008 3.6001C7.80008 3.6001 8.00007 3.80012 8.00007 4.00012C8.00007 4.20012 7.80008 4.40015 7.60008 4.40015C7.40008 4.40015 7.20009 4.20012 7.20009 4.00012C7.10009 3.80012 7.30008 3.6001 7.60008 3.6001Z" fill="white"/>
<path d="M6.69996 2.70007C6.89996 2.70007 7.09996 2.90004 7.09996 3.10004C7.09996 3.30004 6.89996 3.50006 6.69996 3.50006C6.49996 3.50006 6.29994 3.30004 6.29994 3.10004C6.19994 2.90004 6.39996 2.70007 6.69996 2.70007Z" fill="white"/>
<path d="M8.39999 2.70007C8.59999 2.70007 8.79999 2.90004 8.79999 3.10004C8.79999 3.30004 8.59999 3.50006 8.39999 3.50006C8.19999 3.50006 8 3.30004 8 3.10004C8 2.90004 8.19999 2.70007 8.39999 2.70007Z" fill="white"/>
</svg>

<svg width="11" height="8" fill="none" xmlns="http://www.w3.org/2000/svg"><path d="M1.1 7.1c.2.1.5 0 .8-.1.5-.2 1.1-.6 1.6-1.1.4-.4 1.1-.6 1.8-.6s1.5.2 1.8.6c.6.5 1.1.9 1.6 1.1.3.1.6.2.8.1.3-.1.5-.3.6-.6.1-.3.2-.8.2-1.4 0-.6-.1-1.2-.3-1.8-.2-.6-.3-1.1-.6-1.5C8.5.3 7.6.5 6.4.8c-.4.1-.8.2-1.2.2h-.1C4.7 1 4.3.9 3.9.8 2.8.5 1.8.3.9 1.8c-.2.4-.4 1-.6 1.5-.2.6-.3 1.2-.3 1.8 0 .6 0 1.1.2 1.4.4.3.6.5.9.6Zm-.3-2c0-.5.1-1.2.3-1.7.1-.5.3-1 .5-1.4.7-1.2 1.5-1 2.5-.8.4.1.8.2 1.2.2h.1c.5 0 .9-.1 1.2-.2 1-.2 1.8-.5 2.5.8.2.4.4.9.5 1.4.1.6.2 1.2.3 1.7 0 .6 0 1-.1 1.2-.1.2-.2.3-.3.3-.1 0-.3 0-.5-.1-.4-.2-1-.6-1.5-1-.5-.5-1.3-.7-2.2-.7-.8 0-1.7.2-2.2.7-.5.5-1 .9-1.5 1-.2.1-.4.1-.5.1-.1 0-.2-.1-.3-.3V5.1Z" fill="#fff"/><path d="M2.3 3.9c0 .2.1.3.2.5.1.1.3.2.5.2s.4-.1.5-.2c.1-.1.2-.3.2-.5.2 0 .3-.1.5-.2.1-.1.2-.3.2-.5s-.1-.4-.2-.5c-.1-.1-.3-.2-.5-.2 0-.2-.1-.3-.2-.4-.1-.1-.3-.2-.5-.2s-.4.1-.5.2c-.1.1-.2.3-.2.5-.2 0-.3.1-.5.2-.1.1-.2.3-.2.5s.1.4.2.5c.2 0 .3.1.5.1Zm-.2-.7c0-.1 0-.1.1-.2.1 0 .1-.1.2-.1h.2c.1 0 .2-.1.2-.2v-.2c0-.1 0-.1.1-.2s.1-.1.2-.1.1 0 .2.1c0 .1.1.1.1.2v.2c0 .1.1.2.2.2h.2c.1 0 .1 0 .2.1s.1.1.1.2 0 .1-.1.2-.1.1-.2.1h-.2c-.1 0-.2.1-.2.2v.2c0 .1 0 .1-.1.2s-.1.1-.2.1-.1 0-.2-.1-.1-.1-.1-.2v-.2c0-.1-.1-.2-.2-.2h-.2c-.1 0-.1 0-.2-.1s-.1-.2-.1-.2ZM7.6 1.8c.2 0 .4.2.4.4s-.2.4-.4.4-.4-.2-.4-.4c-.1-.2.1-.4.4-.4ZM7.6 3.6c.2 0 .4.2.4.4s-.2.4-.4.4-.4-.2-.4-.4c-.1-.2.1-.4.4-.4ZM6.7 2.7c.2 0 .4.2.4.4s-.2.4-.4.4-.4-.2-.4-.4c-.1-.2.1-.4.4-.4ZM8.4 2.7c.2 0 .4.2.4.4s-.2.4-.4.4-.4-.2-.4-.4.2-.4.4-.4Z" fill="#fff"/></svg>
